lib/flags/s/686.svg

<svg xmlns="http://www.w3.org/2000/svg" fill="none" viewBox="0 0 16 12"><mask id="686_svg__a" width="16" height="12" x="0" y="0" mask-type="alpha" maskUnits="userSpaceOnUse"><path fill="#fff" d="M0 0H16V12H0z"/></mask><g fill-rule="evenodd" clip-rule="evenodd" mask="url(#686_svg__a)"><path fill="#FBCD17" d="M5 0H11V12H5V0Z"/><path fill="#006923" d="M8.0377 7.24528L6.29489 8.45413L6.85178 6.38366L5.57237 5.06104L7.30476 4.98953L8.0377 2.94214L8.77064 4.98953H10.5001L9.22362 6.38366L9.86289 8.33193L8.0377 7.24528Z"/><path fill="#E11C1B" d="M11 0H16V12H11V0Z"/><path fill="#006923" d="M0 0H5V12H0V0Z"/></g></svg>

<svg xmlns="http://www.w3.org/2000/svg" fill="none" viewBox="0 0 16 12"><mask id="686_svg__a" width="16" height="12" x="0" y="0" maskUnits="userSpaceOnUse"><path fill="#fff" d="M0 0h16v12H0z"/></mask><g fill-rule="evenodd" clip-rule="evenodd" mask="url(#686_svg__a)"><path fill="#FBCD17" d="M5 0h6v12H5V0z"/><path fill="#006923" d="M8.038 7.245l-1.743 1.21.557-2.071-1.28-1.323 1.733-.072.733-2.047.733 2.047h1.73L9.223 6.384l.639 1.948-1.825-1.087z"/><path fill="#E11C1B" d="M11 0h5v12h-5V0z"/><path fill="#006923" d="M0 0h5v12H0V0z"/></g></svg>
